img/flags/ALL.svg

<?xml version="1.0" encoding="UTF-8"?>
<svg width="42px" height="41px" viewBox="0 0 42 41" version="1.1" xmlns="http://www.w3.org/2000/svg" xmlns:xlink="http://www.w3.org/1999/xlink">
    <!-- Generator: Sketch 49 (51002) - http://www.bohemiancoding.com/sketch -->
    <title>earth-with-continents</title>
    <desc>Created with Sketch.</desc>
    <defs></defs>
    <g id="Bitcoin-Exchanges" stroke="none" stroke-width="1" fill="none" fill-rule="evenodd" opacity="0.5">
        <g id="22.01.18_Bitcoin.org_Bitcoin-Exchanges_Desktop-1200px--" transform="translate(-613.000000, -739.000000)" fill="#DADADA" fill-rule="nonzero">
            <g id="international" transform="translate(613.000000, 739.000000)">
                <g id="Group-2">
                    <g id="earth-with-continents">
                        <path d="M2,11.581934 L2,12 C2.253,11.6583671 2.531,11.3259988 2.829,11 L2,11.581934 Z" id="Shape"></path>
                        <polygon id="Shape" points="14.208 11 14 11.22 14.28 11.454 14.563 11.22"></polygon>
                        <path d="M2.962,9.26448363 L2.939,9.10012594 L2.925,9 C2.596,9.32556675 2.287,9.65806045 2,10 L2.31,9.76322418 L2.962,9.26448363 Z" id="Shape"></path>
                        <polygon id="Shape" points="10 5.362 10 5 9.39869281 5 9.36673929 5.174 9 5.174 9 5.217 9 5.678 9.82716049 5.678"></polygon>
                        <path d="M41.073,16 L41,16.085 L41.164,16.393 C41.134,16.261 41.104,16.13 41.073,16 Z" id="Shape"></path>
                        <path d="M14,11.765 L14.433,11.684 L14.779,11.461 L14.779,11 L14.001,11 C14,11.071 14,11.765 14,11.765 Z" id="Shape"></path>
                        <path d="M40.689,12.9578415 C40.518,12.6340641 40.338,12.3145025 40.146,12 L40,12.1391231 L40,13 L40.449,12.9485666 L40.689,12.9578415 Z" id="Shape"></path>
                        <path d="M9.98612232,6.505 C9.98612232,6.505 10.0173471,6 9.98612232,6 C9.95489753,6 9.58746168,6.086 9.58746168,6.086 L9,6.317 L9.15757625,6.577 L9.98612232,6.505 Z" id="Shape"></path>
                        <path d="M36.5770308,9 L37,8.31480546 C36.6610644,7.86205154 36.3034547,7.4244568 35.9327731,7 L35.9290383,8.13996968 L35,8.64931784 L35.092437,8.98383022 L36.5770308,9 Z" id="Shape"></path>
                        <polygon id="Shape" points="12 8.125 11.5242634 8 11 8.27462121 11.3232236 9 11.8370884 8.82291667"></polygon>
                        <polygon id="Shape" points="14 9 14 9.548 14.476 9.434"></polygon>
                        <polygon id="Shape" points="12.4164916 9 12.0682773 9.274 12 9.607 12.2731092 9.75 13 9.75 13 9.274 12.8944328 9.274 12.8944328 9"></polygon>
                        <polygon id="Shape" points="12 11.8408759 12.2934391 12 13 11 12.4484499 11 12.0634463 11.4211679"></polygon>
                        <polygon id="Shape" points="14 11 14 11.417 14.202 11.707 14.938 11.707 14.938 11.26 14.057 11"></polygon>
                        <polygon id="Shape" points="13.4321796 12.246 13.1075772 12.275 13 12.78 13.6884939 12.78 14 12.448 14 12 13.4995323 12.073"></polygon>
                        <path d="M39.345105,13.1150416 L38.7982938,12.5271137 L38.6943544,11.5823561 L38.1348897,11.8816327 L37.8330137,13.0388943 L37.0240945,12.1950761 L36.9906532,11.3981859 L36.2106563,10.7394234 L35.9223376,10.4596264 L35.0158058,10.4596264 L35.3032207,11.251204 L36.3923241,11.8462153 L36.5812226,12.043667 L36.3462293,12.1596588 L36.3552675,12.7856603 L35.8238212,13.0025915 L35.371911,12.9051938 L35.0881115,12.5111759 L35.8238212,12.5510204 L36.0235655,12.2880466 L34.3903622,11.2087032 L34.265635,10.7473923 L33.6013271,11.3353202 L32.9288848,11.1998488 L31.9048564,12.5049779 L31.7024006,13.015873 L31.0462271,13.0743116 L30.0773317,13.0796242 L29.4979829,12.8148796 L29.3280647,11.6868373 L29.5350396,11.1502646 L30.5220113,10.9386459 L31.5966537,11.1502646 L31.7286114,10.5667638 L31.2703745,10.4613973 L31.4285431,9.55382788 L32.5095122,9.38736638 L33.2669136,8.3398985 L34.0469105,8.2106252 L34.7527941,8.31333549 L35.0121906,8.31333549 L34.8702908,7.32961883 L34.0143729,7.66873988 L33.712497,6.93383004 L33.214492,6.86388079 L33.1204947,6.35918367 L33.52631,5.92620667 L34.4906862,5.55609545 L34.738333,5.12134759 C31.9979499,2.75458374 28.6194696,1.08111435 24.8948262,0.37542382 C24.8098671,0.36037145 24.7267156,0.34531908 24.6426603,0.331152143 C24.2576329,0.262973761 23.8671825,0.216931217 23.4740207,0.170003239 C22.6370831,0.0699492495 21.7902035,0 20.9243436,0 C16.3329365,0 12.0849812,1.4600799 8.62967617,3.92601231 L8.80772877,3.92512688 L9.68443445,3.91804341 L10.1553248,4.17304827 L11.0410687,4.35987474 L11.1097591,4.70165209 L12.5197187,4.7521218 L12.3281088,4.31029047 L11.0763177,4.27575856 L11.3709631,4.00304503 L11.2679276,3.67986179 L10.1372484,3.67986179 L11.3709631,2.77583414 L12.5540639,2.77583414 L13.1099134,3.52668178 L14.0327139,3.5771515 L14.5885634,3.04854767 L15.0061283,3.25308282 L14.2405926,3.98533636 C14.2405926,3.98533636 13.1804113,4.00304503 13.2319291,4.00304503 C13.2852545,4.00304503 13.3205035,4.71847533 13.3205035,4.71847533 L14.605736,4.68394342 L14.7449243,4.34393694 L15.631572,4.29169636 L15.7355113,3.78257208 L15.2149108,3.69579959 L15.3884443,3.23537415 L15.7870291,3.11584062 L17.1780085,3.18313357 L16.4115689,3.86580283 L16.5353923,4.39352122 L17.3352732,4.51305475 L17.2828517,3.56032826 L18.0483875,3.1680812 L19.4050217,3.01401577 L21.3708309,3.86668826 L21.3708309,4.59982723 L21.9953707,4.7521218 L21.681745,5.33119534 L20.796905,5.33119534 L20.5329894,5.99527049 L18.5048167,5.52776158 L20.0991557,4.69633949 L19.4917885,4.19075694 L18.1179816,4.36076018 L17.9959659,4.48295001 L17.9914468,4.48117914 L17.9733704,4.50685671 L17.5774971,4.90884354 L16.924035,4.96374042 L16.9764566,5.28338192 L17.2051231,5.37546701 L17.1960849,5.4808336 L16.6637348,5.55521002 L16.6248705,5.85802829 L16.1160197,5.88370586 L16.02383,5.28338192 L15.1100677,5.55521002 L13.2454864,6.62569917 L13.4533651,7.37831768 L13.9739656,7.71124069 L15.017878,7.85202462 L15.017878,9.01459886 L15.4987104,8.93756614 L15.94339,8.03088219 L17.0532813,7.68644855 L17.0532813,6.29277616 L17.6705906,5.83677789 L19.1618941,6.18209697 L19.0561471,7.10206241 L19.4565395,7.10206241 L20.5519697,6.57434402 L20.6052951,7.7829608 L21.4042722,8.26020948 L21.3708309,8.97652521 L20.6052951,9.23153007 L20.6577166,9.46882626 L21.5787095,9.88055286 L21.5615369,10.3737393 L21.2931023,10.3958752 C21.2931023,10.3879063 21.2912947,10.3817082 21.2912947,10.3817082 L20.1271741,10.0310766 L20.077464,9.66450707 L20.4173004,9.43606522 L20.4173004,9.10314221 L20.052157,9.01371342 L19.961775,9.32095886 L19.3191588,9.41747112 L19.2558914,9.39622071 L19.2558914,9.42809632 L19.0344554,9.46085736 L18.8536913,9.10314221 L18.644005,9.01371342 L18.1875758,9.01371342 L17.9806009,9.18017493 L17.9806009,9.55028615 L18.3710513,9.67867401 L18.7578864,9.73091459 L18.6711196,9.76898823 L18.3177259,10.1506101 L18.1640764,9.95935644 L17.8233362,9.87169852 L16.8969204,10.7261419 L17.0189361,10.8235396 L15.6496484,11.5646474 L14.3617045,12.87686 L14.2740339,13.4603607 L12.9842823,14.2908973 L12.3461852,14.921326 L12.4166832,16.1821833 L11.5300355,15.7766548 L11.5363622,15.0399741 L9.06893283,15.0408595 L7.79002711,15.6748299 L7.23598527,16.6771407 L7.01545312,17.4713746 L7.3751736,18.2425872 L8.38112559,18.3630062 L9.98179133,17.3137674 L10.1209797,17.8335169 L9.63291669,18.7375445 L10.8521703,18.9403088 L10.974186,20.782896 L11.1278355,20.8085736 L11.1422966,20.8103445 L12.6444459,21.0609221 L13.7037233,19.8602743 L14.9916672,20.1161646 L15.4426735,20.7324263 L16.6781959,20.6607062 L16.7116372,20.3038765 L17.3913101,20.6261743 L18.1559421,21.8002592 L19.4773273,21.8188533 L19.9653903,22.6538171 L20.0340806,23.6738365 L21.4955581,24.220149 L23.3384476,24.2378577 L23.8780283,25.1046971 L24.6941781,25.3623583 L24.538721,26.078674 L23.6421313,27.1934348 L23.3809272,29.6602527 L22.5711042,30.2871396 L21.3735423,30.2508368 L20.9722461,30.9335061 L21.269603,32.2111867 L19.9653903,33.8474679 L19.5469215,34.5983155 L18.3032648,35.1827017 L17.487115,35.3057769 L17.4518661,35.6457834 L18.0266958,35.8078177 L17.955294,36.1726163 L17.441924,36.6569485 L17.7546459,37.0429975 L18.3728589,37.0607062 L18.3376099,37.5282151 L18.1731147,37.989526 L18.1215969,38.3631789 L19.036263,39.1193392 L18.9133435,39.5098154 L17.6678791,39.4885649 L16.4287415,38.4278156 L15.4643652,36.7658568 L15.5990345,35.1614512 L14.8678438,34.2078393 L15.1633931,32.5901523 L14.7304632,32.4697333 L14.7304632,28.9607602 C14.7304632,28.9607602 13.5121134,28.0567325 13.4434231,28.0567325 C13.3729251,28.0567325 12.7989992,27.904438 12.7989992,27.904438 L12.6778873,27.2394774 L11.0943941,25.2986071 L11.250755,24.6 L11.3040804,23.4586762 L12.3986068,22.7078285 L12.2431497,21.4301479 L10.6433878,21.3123853 L9.38978904,19.9142857 L8.50404515,19.6761041 L7.93011926,19.5733938 L7.9988096,19.0633841 L7.26761898,18.9606738 L7.26761898,19.2502106 L5.44190199,18.8074938 L4.70619227,17.7060145 L4.96106959,17.2535579 L4.65919362,17.2500162 L4.57061923,16.9631357 L4.78482464,16.8568837 L3.84937063,15.5189936 L3.64962635,14.308606 L3.17963979,14.308606 L3.33690453,15.4835763 L4.13678549,16.6930785 L4.04911492,17.1712126 L3.37034588,17.0693878 L2.53702357,15.6757154 L2.53702357,14.0536011 L1.66664462,13.6436454 L1.66664462,12.6555016 L1.66664462,12.476644 C1.17677402,13.60203 0.790842757,14.7823129 0.512466107,15.999784 L0.561272403,15.9900443 L0.848687256,15.9333765 L1.01860547,16.732923 L1.37651831,17.3004859 L1.61512687,17.5678868 L2.04805679,17.7343483 L1.64043383,18.2089407 L0.851398717,18.2842026 L0.254877323,18.2842026 L0.321760025,17.5935644 L0.816149726,17.4935104 L0.774573992,17.1685563 L0.365143399,16.9153223 L0.331702048,16.892301 C0.118400459,18.0646151 0,19.2688047 0,20.4986718 C0,20.5349746 0.00271146088,20.5712774 0.00271146088,20.6075802 C0.0632674206,31.8614404 9.42503803,41 20.9261513,41 C27.4670987,41 33.3157199,38.0417665 37.1560523,33.4215743 L36.4664374,33.4215743 L36.4664374,32.0588921 L35.6665564,31.0061117 L35.6665564,29.3654033 L35.0564777,28.7712774 L35.0040562,28.0886081 L35.7759187,26.6400389 L34.3090184,24.1023864 L34.481648,22.3802181 L33.1611666,22.2474031 L32.6740075,21.7701544 L31.7864559,21.7701544 L31.3345458,22.1792247 L29.7718405,22.1792247 L29.7176113,22.314696 L28.8472323,22.314696 L26.8488857,20.0825181 L26.8651544,18.3444121 L27.1950488,18.2248785 L27.3188722,17.5599179 L26.8488857,17.5599179 L26.6563719,16.8613109 L28.9692481,15.2259151 L28.9692481,14.0677681 L30.1026387,13.4515063 L30.5599718,13.4975489 L31.4918105,13.4975489 L32.2220973,13.1132707 L34.5702224,12.9335277 L34.5702224,14.1093834 L36.423054,14.5706943 L36.7872936,14.8256992 L37.1280339,14.8256992 L37.1280339,14.1864162 L38.1972533,14.0845913 L39.2140511,14.8256992 L40.8834072,14.8256992 L41,14.721218 C40.8346009,14.1695929 40.6457024,13.628593 40.4342085,13.095562 L39.345105,13.1150416 Z" id="Shape"></path>
                    </g>
                </g>
            </g>
        </g>
    </g>
</svg>

<svg width="42" height="41" xmlns="http://www.w3.org/2000/svg"><g fill="#DADADA" fill-rule="nonzero" opacity=".5"><path d="M2 11.582V12c.253-.342.531-.674.829-1L2 11.582zM14.208 11l-.208.22.28.234.283-.234zM2.962 9.264L2.939 9.1 2.925 9c-.329.326-.638.658-.925 1l.31-.237.652-.499zM10 5.362V5h-.601l-.032.174H9v.504h.827zM41.073 16l-.073.085.164.308-.091-.393z"/><path d="M14 11.765l.433-.081.346-.223V11h-.778l-.001.765zM40.689 12.958a17.695 17.695 0 00-.543-.958l-.146.14V13l.449-.051.24.009zM9.986 6.505s.031-.505 0-.505-.399.086-.399.086L9 6.317l.158.26.828-.072zM36.577 9L37 8.315A22.51 22.51 0 0035.933 7l-.004 1.14-.929.51.092.334L36.577 9zM12 8.125L11.524 8 11 8.275l.323.725.514-.177zM14 9v.548l.476-.114zM12.416 9l-.348.274-.068.333.273.143H13v-.476h-.106V9zM12 11.84l.293.16.707-1h-.552l-.385.421z"/><path d="M14 11v.417l.202.29h.736v-.447l-.881-.26zM13.432 12.246l-.324.029-.108.505h.688l.312-.332V12l-.5.073z"/><path d="M39.345 13.115l-.547-.588-.104-.945-.56.3-.301 1.157-.809-.844-.033-.797-.78-.659-.289-.28h-.906l.287.792 1.09.595.188.198-.235.116.01.626-.532.217-.452-.098-.284-.394.736.04.2-.263-1.634-1.08-.124-.46-.665.587-.672-.135-1.024 1.305-.203.51-.656.06-.969.005-.579-.265-.17-1.128.207-.537.987-.211 1.075.211.132-.583-.459-.106.159-.907 1.08-.167.758-1.047.78-.13.706.103h.26l-.143-.983-.856.339-.302-.735-.498-.07-.094-.505.406-.433.965-.37.247-.435A21.05 21.05 0 0024.895.375l-.252-.044c-.385-.068-.776-.114-1.169-.161-.837-.1-1.684-.17-2.55-.17-4.591 0-8.839 1.46-12.294 3.926h.178l.876-.008.471.255.886.187.069.342 1.41.05-.192-.442-1.252-.034.295-.273-.103-.323h-1.13l1.233-.904h1.183l.556.75.923.051.556-.528.417.204-.765.732-1.01.018c.054 0 .09.715.09.715l1.285-.034.139-.34.887-.052.104-.51-.521-.086.173-.46.399-.12 1.391.067-.766.683.123.528.8.12-.052-.954.765-.392 1.357-.154 1.966.853V4.6l.624.152-.313.58h-.885l-.264.663-2.028-.467 1.594-.832-.607-.505-1.374.17-.122.122-.005-.002-.018.026-.396.402-.653.055.052.32.23.091-.01.106-.532.074-.04.303-.508.026-.092-.6-.914.271-1.865 1.07.208.753.521.333 1.044.141v1.163l.48-.077.445-.907 1.11-.345V6.293l.618-.456 1.49.345-.105.92h.4l1.096-.528.053 1.209.8.477-.034.717-.766.255.053.237.92.412-.016.493-.269.022c0-.008-.002-.014-.002-.014l-1.164-.35-.05-.367.34-.229v-.333l-.365-.09-.09.308-.643.096-.063-.02v.031l-.222.033-.18-.358-.21-.09h-.456l-.207.167v.37l.39.129.387.052-.087.038-.353.382-.154-.192-.34-.087-.927.854.122.098-1.37.74-1.287 1.313-.088.583-1.29.83-.638.631.07 1.261-.886-.405.006-.737H9.07l-1.279.635-.554 1.002-.22.794.36.772 1.005.12 1.6-1.05.14.52-.488.905 1.22.202.121 1.843.154.026.014.001 1.502.25 1.06-1.2 1.288.256.45.616 1.236-.071.034-.357.68.322.764 1.174 1.321.019.488.835.07 1.02 1.46.546 1.843.018.54.867.816.257-.155.717-.897 1.114-.261 2.467-.81.627-1.197-.036-.402.683.298 1.277-1.305 1.636-.418.751-1.244.585-.816.123-.035.34.575.162-.072.365-.513.484.313.386.618.018-.035.467-.165.462-.051.373.914.756-.123.39-1.245-.02-1.24-1.061-.964-1.662.135-1.605-.731-.953.295-1.618-.433-.12v-3.51s-1.218-.903-1.287-.903c-.07 0-.644-.153-.644-.153l-.121-.665-1.584-1.94.157-.699.053-1.141 1.095-.751-.156-1.278-1.6-.118-1.253-1.398-.886-.238-.574-.103.069-.51-.731-.102v.29l-1.826-.444-.736-1.101.255-.452-.302-.004-.088-.287.214-.106-.936-1.338-.2-1.21h-.47l.158 1.175.8 1.21-.088.477-.679-.102-.833-1.393v-1.622l-.87-.41v-1.168A19.993 19.993 0 00.512 16l.05-.01.287-.057.17.8.358.567.238.268.433.166-.408.475-.789.075H.255l.067-.69.494-.1-.041-.325-.41-.254-.033-.023A20.124 20.124 0 000 20.5c0 .036.003.072.003.109C.063 31.86 9.425 41 20.926 41a21.06 21.06 0 0016.23-7.578h-.69v-1.363l-.8-1.053v-1.64l-.61-.595-.052-.682.772-1.449-1.467-2.538.173-1.722-1.32-.133-.488-.477h-.888l-.451.41h-1.563l-.054.135h-.87l-2-2.232.017-1.739.33-.12.124-.664h-.47l-.193-.699 2.313-1.635v-1.158l1.134-.616.457.046h.932l.73-.385 2.348-.18v1.176l1.853.462.364.255h.341v-.64l1.07-.101 1.016.74h1.67l.116-.104a19.903 19.903 0 00-.566-1.625l-1.089.019z"/></g></svg>
